!!!OTL: IM SCHATTEN GRUENER BAEUME
!!!ARE: Europa, Mitteleuropa, Deutschland, Fulda
!!!SCT: B0165A
!!!YEM: Copyright 1995, estate of Helmut Schaffrath.
**kern
*ICvox
*Ivox
*M6/8
*k[f#]
*G:
{8d
=1
4g
8g
8g
8f#
8g
=2
4b
8a
4g}
{8d
=3
4a
8a
4a
8b
=4
4cc
8b
4a}
{8dd
=5
4dd
8f#
8g
8a
8b
=6
4.a
4r}
{8a
=7
4a
8dd
4a
8g
=8
8g
8f#
4.r}
{8a
=9
4a
8dd
4a
8g
=10
8f#
8a
4.r}
{8d
=11
4g
8g
8g
8f#
8g
=12
4.b
4g}
{8g
=13
8a
8cc
8b
8a
8g
8f#
=14
2g
8r}
==
!!!AGN: Ballade, Romanze
!!!ONB: ESAC (Essen Associative Code) Database: BOEHME
!!!AMT: compound duple
!!!AIN: vox
!!!EED: Helmut Schaffrath
!!!EEV: 1.0
*-
